!!!COM: Frescobaldi, Girolamo
!!!CDT: 1583///-1643
!!!ONM: No. 27
!!!OTL: No. 27: Canzon Seconda &agrave; 3. Due Canti e Basso
!!!OPR: Canzoni da sonare a una, due, tre et quattro, libro primo
!!!PPP: Venezia
!!!PDT: 1634
!!!URL: http://icking-music-archive.org/ByComposer/Frescobaldi.html
!!!ONB: Andrea Friggi, ed.
**kern	**kern	**kern	**kern
!Basso ad Organo	!Basso	!Canto Secondo	!Canto Primo
*staff4	*staff3	*staff2	*staff1
*Icello	*Icello	*Ivioln	*Ivioln
*clefF4	*clefF4	*clefG2	*clefG2
*k[b-]	*k[b-]	*k[b-]	*k[b-]
*M3/2	*M3/2	*M3/2	*M3/2
*MM200	*MM200	*MM200	*MM200
=1-	=1-	=1-	=1-
2F\	2F\	2aa\	2cc\
2D\	2D\	2ff\	4dd\
.	.	.	4ff\
4C/	4C/	2gg\	4ee\
4BB-/	4BB-/	.	4dd\
=2	=2	=2	=2
1.AA	1.AA	2.aa\	1cc
.	.	8gg\L	.
.	.	8ff\J	.
.	.	4ee\	2r
.	.	4dd\	.
=3	=3	=3	=3
2A\	2A\	4.cc#\	4r
.	.	.	4aa\
.	.	8a/	.
2B-\	2B-\	4dd\	4gg\
.	.	4dd\	4ff\
2c\	2c\	4ccn\	4ee\
.	.	4b-\	8dd\L
.	.	.	8gg\J
=4	=4	=4	=4
1F	2.F\	4.a/	2.ff\
.	.	8aa\	.
.	.	4ff\	.
.	4F\	4aa\	4ff\
2G\	2G\	4gg\	4ee\
.	.	4ff\	4dd\
=5	=5	=5	=5
1A	2A\	2.ee\	2.cc\
.	2.AA/	.	.
.	.	4dd\	4bn\
2A\	.	4ee\	4cc\
.	8GG/L	4ff\	4dd\
.	8FF/J	.	.
=6	=6	=6	=6
2E\	2EE/	2gg\	2ee\
2F\	2FF/	4ff\	4dd\
.	.	4ee\	2cc\
2G\	2GG/	2dd\	.
.	.	.	4bn\
=7	=7	=7	=7
*met(C)	*met(C)	*met(C)	*met(C)
*M4/4	*M4/4	*M4/4	*M4/4
1C	1C	2ee\	1cc
.	.	4r	.
.	.	4cc\	.
=8	=8	=8	=8
4F\	1r	4.a/	1r
4A\	.	.	.
.	.	8cc\	.
2B-\	.	8dd\L	.
.	.	8ee\	.
.	.	8ff\	.
.	.	8gg\J	.
=9	=9	=9	=9
4c\	1r	8ee\L	4r
.	.	8ff\J	.
4C/	.	2gg\	4cc\
2D\	.	.	4.a/
.	.	4ff#\	.
.	.	.	8cc\
=10	=10	=10	=10
4GG/	1r	2gg\	8b-\L
.	.	.	8cc\
2BB-/	.	.	8dd\
.	.	.	8ee\J
.	.	2r	8cc\L
.	.	.	16dd\L
.	.	.	16ee\JJ
4AA/	.	.	8ff\L
.	.	.	8ee\J
=11	=11	=11	=11
4BB-/	4r	1r	4dd\
4F\	4F\	.	2cc\
2D\	4.D\	.	.
.	.	.	4bn\
.	8F\	.	.
=12	=12	=12	=12
2C/	4E\	8r	2cc\
.	.	8g/L	.
.	4C/	8a/	.
.	.	8b-/J	.
4.AA/	4.AA/	4cc\	2r
.	.	8cc\L	.
8C/	8C/	8cc\J	.
=13	=13	=13	=13
2BB-/	8BB-/L	8dd\L	2r
.	8C/	8ee\	.
.	8D/	8ff\	.
.	8E/J	8gg\J	.
2C/	4.C/	2ee\	8r
.	.	.	8cc\L
.	.	.	8dd\
.	8c\	.	8ee\J
=14	=14	=14	=14
4.AA/	4.A\	4r	4ff\
.	.	4cc\	8ff\L
8BB-/	8B-\	.	8ff\J
2GG/	8G\L	4.b-\	8gg\L
.	8A\	.	8ff\
.	8B-\	.	8dd\
.	8c\J	8g/	8ee\J
=15	=15	=15	=15
2FF/	2F\	4.a/	8ff\L
.	.	.	8f\
.	.	.	8g\
.	.	8ff\	8a\J
2BB-/	2r	4.dd\	4b-\
.	.	.	8b-\L
.	.	8ff\	8b-\J
=16	=16	=16	=16
4C/	1r	8ee\L	8g/L
.	.	8ff\J	8a/
4GG/	.	8gg\L	8b-/
.	.	16aa\L	8cc/J
.	.	16gg\JJ	.
4D\	.	4ff\	4a/
4AA/	.	4aa\	4ff\
=17	=17	=17	=17
4BB-/	2r	4gg\	4.dd\
4D\	.	4ff\	.
.	.	.	8ff\
2C/	8r	8gg\L	2ee\
.	8C\L	8ee\	.
.	8D\	8ff\	.
.	8E\J	8gg\J	.
=18	=18	=18	=18
4F\	4F\	4aa\	1r
8F\L	8F\L	8aa\L	.
8F\J	8F\J	8aa\J	.
4G\	8G\L	8dd\L	.
.	8F\	8ee\	.
4D\	8D\	8ff\	.
.	8E\J	8gg\J	.
=19	=19	=19	=19
4F\	4F\	4cc\	4r
4D\	4D\	2dd\	4b-\
2E-\	2E-\	.	4.g/
.	.	4cc\	.
.	.	.	8gg\
=20	=20	=20	=20
2D\	2D\	2dd\	8ff\L
.	.	.	8gg\J
.	.	.	4aa\
4E\	2r	2r	8gg\L
.	.	.	8gg\
4F\	.	.	8ff\
.	.	.	8ee\J
=21	=21	=21	=21
2G\	4r	2r	2dd\
.	4G\	.	.
2C/	4.E\	4r	2ee\
.	.	4cc\	.
.	8G\	.	.
=22	=22	=22	=22
2F\	8F\L	4.a/	1r
.	8G\	.	.
.	8A\	.	.
.	8B-\J	8dd\	.
2G\	4.G\	8b-\L	.
.	.	16cc\L	.
.	.	16dd\JJ	.
.	.	8.ee\L	.
.	8G\	.	.
.	.	16dd\Jk	.
=23	=23	=23	=23
2A\	4.A\	8cc\L	8r
.	.	8cc\	8ee\L
.	.	8dd\	8ff\
.	8G\	8ee\J	8gg\J
2F\	4F\	4ff\	4aa\
.	4D\	8ff\L	8a/L
.	.	8ff\J	8a/J
=24	=24	=24	=24
2BB-/	4.BB-/	8gg\L	8b-/L
.	.	8ff\	8a/
.	.	8ee\	8g/
.	8BB-/	8dd\J	8f/J
4C/	2C/	4cc\	4e/
4EE/	.	[4ee\	[4cc\
=25	=25	=25	=25
2FF/	2FF/	4ee\]	4cc\]
.	.	8dd\L	8ff\L
.	.	8cc\J	8ee\J
2GG/	2GG/	2bn\	2dd\
=26	=26	=26	=26
1C	1C	1cc	1ee
=27	=27	=27	=27
1F	1r	1r	2r
.	.	.	2cc\
=28	=28	=28	=28
2B-\	1r	2r	8.dd\L
.	.	.	16ee\Jk
.	.	.	8dd\L
.	.	.	16ee\L
.	.	.	16ff\JJ
2E-\	.	4r	8.gg\L
.	.	.	16ff\Jk
.	.	[4b-\	16ee-\LL
.	.	.	16dd\
.	.	.	16cc\
.	.	.	16b-\JJ
=29	=29	=29	=29
1C	1r	4b-\]	[2cc\
.	.	8a/L	.
.	.	8g/J	.
.	.	8a\L	8cc\L]
.	.	16b-\L	16dd\L
.	.	16cc\JJ	16ee\JJ
.	.	8b-/L	8dd\L
.	.	8a/J	8cc\J
=30	=30	=30	=30
2BB-/	1r	[2b-\	[4dd\
.	.	.	16dd\LL]
.	.	.	16ee\
.	.	.	16ff\
.	.	.	16dd\JJ
2GG/	.	8b-\L]	[2gg\
.	.	16cc\L	.
.	.	16dd\JJ	.
.	.	8.cc#\L	.
.	.	16bn\Jk	.
=31	=31	=31	=31
1AA	1r	4cc#\	8gg\L]
.	.	.	16ff\L
.	.	.	16ee\JJ
.	.	16r	4ff\
.	.	16aa\LL	.
.	.	16gg\	.
.	.	16aa\JJ	.
.	.	4ee\	16r
.	.	.	16aa\LL
.	.	.	16gg\
.	.	.	16aa\JJ
.	.	16r	4ff\
.	.	16aa\LL	.
.	.	16gg\	.
.	.	16aa\JJ	.
=32	=32	=32	=32
1AA	1r	[4ff\	16r
.	.	.	16a\LL
.	.	.	16bn\
.	.	.	16cc#\JJ
.	.	16ff\LL]	2dd\
.	.	16ee\	.
.	.	16ff\	.
.	.	16gg\JJ	.
.	.	2ee\	.
.	.	.	4cc#\
=33	=33	=33	=33
*M3/2	*M3/2	*M3/2	*M3/2
2.D\	2.D\	4.dd\	1dd
.	.	8cc\	.
.	.	4dd\	.
4D\	4D\	4a/	.
4E\	4E\	4cc\	2r
4F\	4F\	4dd\	.
=34	=34	=34	=34
2.G\	2.G\	1b-	4.gg\
.	.	.	8ff\
.	.	.	4gg\
4B-\	4B-\	.	4dd\
4A\	4A\	2r	4ff\
4G\	4G\	.	4gg\
=35	=35	=35	=35
2.F\	4.F\	2.f/	1aa
.	8E\	.	.
.	4F\	.	.
4D\	4D\	4f/	.
4E\	4E\	4g/	2r
4F\	4F\	4a/	.
=36	=36	=36	=36
1G	4.G\	1b-	2.dd\
.	8A\	.	.
.	4B-\	.	.
.	4BB-/	.	4dd\
2C/	4C/	2r	4ee\
.	4D\	.	4ff\
=37	=37	=37	=37
2E-\	2E-\	1.r	4gg\
.	.	.	4g/
2D\	4D\	.	2b-\
.	4E-\	.	.
2F\	2F\	.	2a/
=38	=38	=38	=38
1.BB-	1BB-	1.r	1b-
.	2r	.	2r
=39	=39	=39	=39
2.BB-/	1.r	2.dd\	4.b-\
.	.	.	8a/
.	.	.	4b-\
4D\	.	4dd\	4f/
2C/	.	4ee\	4g/
.	.	4ff\	4a/
=40	=40	=40	=40
1G	1.r	4.gg\	2.b-\
.	.	8dd\	.
.	.	4gg\	.
.	.	4gg\	4b-\
2D\	.	2ff\	4a/
.	.	.	4b-\
=41	=41	=41	=41
1C	2.C/	1ee	4.cc\
.	.	.	8g/
.	.	.	4cc\
.	4C/	.	4cc\
2GG/	4D\	2r	2b-\
.	4E\	.	.
=42	=42	=42	=42
1FF	4.F\	2.cc\	1a
.	8C/	.	.
.	4c\	.	.
.	4c\	4cc\	.
2BB-/	2B-\	4dd\	2r
.	.	4ee\	.
=43	=43	=43	=43
2.F\	2.F\	4.ff\	1.r
.	.	8cc\	.
.	.	4ff\	.
4D\	4D\	4ff\	.
4E\	4E\	2ee\	.
4F\	4F\	.	.
=44	=44	=44	=44
2.G\	4.G\	4.dd\	2.dd\
.	8F\	8a/	.
.	4G\	4b-\	.
4BB-/	4BB-/	4b-\	4dd\
2C/	4C/	2a/	4ee\
.	4D\	.	4ff\
=45	=45	=45	=45
2.E-\	2.E-\	4r	4.gg\
.	.	4g/	.
.	.	.	8ff\
.	.	4cc\	4ee-\
4C/	4C/	4cc\	4ee-\
2G\	2G\	2bn\	2dd\
=46	=46	=46	=46
*met(C)	*met(C)	*met(C)	*met(C)
*M4/4	*M4/4	*M4/4	*M4/4
1C	1C	1cc	1ee
=47	=47	=47	=47
1F	1r	1r	2r
.	.	.	2cc\
=48	=48	=48	=48
1D	1r	2r	4.dd\
.	.	.	8ee\
.	.	[2aa\	8.ff\L
.	.	.	16ee\Jk
.	.	.	16ff\LL
.	.	.	16ee\
.	.	.	16ee\
.	.	.	16dd\JJ
=49	=49	=49	=49
1C#	1r	4aa\]	2ee\
.	.	8gg\L	.
.	.	8ff\J	.
.	.	2ee\	4aa\
.	.	.	[4gg\
=50	=50	=50	=50
2D\	2r	2ff\	4gg\]
.	.	.	2ff\
2AA/	2AA/	2cc#\	.
.	.	.	4ee\
=51	=51	=51	=51
2.BB-/	2.BB-/	4dd\	2r
.	.	4ee\	.
.	.	4ff\	[2dd\
8AA/L	8AA/L	4gg\	.
8GG/J	8GG/J	.	.
=52	=52	=52	=52
1FF#	1FF#	2aa\	4dd\]
.	.	.	8cc\L
.	.	.	8b-\J
.	.	4r	8cc\L
.	.	.	16dd\L
.	.	.	16cc\JJ
.	.	[4aa\	8.b-/L
.	.	.	16a/Jk
=53	=53	=53	=53
1GG	1GG	4aa\]	2.b-\
.	.	8gg\L	.
.	.	8ff\J	.
.	.	8gg\L	.
.	.	16aa\L	.
.	.	16gg\JJ	.
.	.	8.ff\L	4b-\
.	.	16ee\Jk	.
=54	=54	=54	=54
1AA	1AA	4ff\	2a/
.	.	8ee\L	.
.	.	8dd\J	.
.	.	4cc#\	4r
.	.	4dd\	[4aa\
=55	=55	=55	=55
1C	2.C/	4ee\	4aa\]
.	.	2ff\	8gg\L
.	.	.	8ff\J
.	.	.	2gg\
.	4C/	4ee\	.
=56	=56	=56	=56
2F\	2F\	2ff\	2ff\
4c\	2r	8r	2r
.	.	8cc\	.
8c\L	.	8g/L	.
8c\J	.	16cc/L	.
.	.	16b-/JJ	.
=57	=57	=57	=57
2F\	2r	8a\L	8r
.	.	[8ff\J	8aa\L
.	.	16ff\LL]	8aa\
.	.	16ee\	.
.	.	16dd\	8aa\J
.	.	16cc\JJ	.
*	*clefC4	*	*
4G\	8r	4b-\	8ff\L
.	8d\L	.	16dd\L
.	.	.	16ee\JJ
4D\	8d\	8a/L	8ff\L
.	8d\J	8b-/J	16gg\L
.	.	.	16ff\JJ
=58	=58	=58	=58
4C/	8c\L	8cc\L	4ee\
.	16G\L	8gg\	.
.	16A\JJ	.	.
4BB-/	8B-\L	8gg\	4dd\
.	16c\L	8gg\J	.
.	16B-\JJ	.	.
2AA/	2A\	8ff\L	8r
.	.	16cc\L	8cc\L
.	.	16dd\JJ	.
.	.	8ee\L	8cc\
.	.	16ff\L	8cc\J
.	.	16ee\JJ	.
=59	=59	=59	=59
4BB-/	2r	2dd\	8b-\L
.	.	.	16dd\L
.	.	.	16ee\JJ
4D\	.	.	8ff\L
.	.	.	16gg\L
.	.	.	16ff\JJ
2C/	8r	2r	2ee\
.	8c\	.	.
.	8G\L	.	.
.	16c\L	.	.
.	16B-\JJ	.	.
=60	=60	=60	=60
2FF/	8A\L	8r	1r
*	*clefF4	*	*
.	[8F\J	8aa\L	.
.	16F\LL]	8aa\	.
.	16E\	.	.
.	16D\	8aa\J	.
.	16C\JJ	.	.
2BB-/	2BB-/	8gg\L	.
.	.	16dd\L	.
.	.	16ee\JJ	.
.	.	8ff\L	.
.	.	16gg\L	.
.	.	16ff\JJ	.
=61	=61	=61	=61
2C/	2C/	2ee\	8r
.	.	.	8cc\
.	.	.	8g/L
.	.	.	16cc/L
.	.	.	16b-/JJ
2FF/	8r	2ff\	8a\L
.	8A\L	.	[8ff\J
.	8A\	.	16ff\LL]
.	.	.	16ee\
.	8A\J	.	16dd\
.	.	.	16cc\JJ
=62	=62	=62	=62
2GG/	8G/L	2r	4b-\
.	16GG/L	.	.
.	16AA/JJ	.	.
.	8BB-/L	.	4dd\
.	16C/L	.	.
.	16BB-/JJ	.	.
2AA/	2AA/	8r	8cc/L
.	.	8ff\	8a/
.	.	8cc\L	8a/
.	.	16ff\L	8a/J
.	.	16ee\JJ	.
=63	=63	=63	=63
2BB-/	2BB-/	8dd\L	8g\L
.	.	16ff\L	16dd\L
.	.	16ee\JJ	16ee\JJ
.	.	16dd\LL	8ff\L
.	.	16cc\	.
.	.	16b-\	16gg\L
.	.	16a\JJ	16ff\JJ
2C/	2r	8g/L	2ee\
.	.	8cc/J	.
.	.	8g/L	.
.	.	16cc/L	.
.	.	16b-/JJ	.
=64	=64	=64	=64
2D\	8r	8a\L	1r
.	8d\	16aa\L	.
.	.	16gg\JJ	.
.	8A\L	16ff\LL	.
.	.	16ee\	.
.	16B-\L	16dd\	.
.	16A\JJ	16cc\JJ	.
2E-\	8G\L	8b-/L	.
.	[8c\J	8g/J	.
.	16c\LL]	8.cc\L	.
.	16B-\	.	.
.	16A\	.	.
.	16G\JJ	16b-\Jk	.
=65	=65	=65	=65
2F\	8F\L	2a/	8r
.	[8F\J	.	8ff\
.	16F\LL]	.	8cc\L
.	16E\	.	.
.	16D\	.	16ff\L
.	16C\JJ	.	16ee\JJ
2BB-/	2BB-/	8r	2dd\
.	.	8gg\	.
.	.	8dd\L	.
.	.	16gg\L	.
.	.	16ff\JJ	.
=66	=66	=66	=66
2C/	8r	4ee\	8r
.	8C/L	.	8cc\
.	8C/	4ee\	8g/L
.	8C/J	.	16cc/L
.	.	.	16b-/JJ
8F\L	8F\L	8r	8a\L
8D\J	16D\L	8ff\L	8aa\
.	16E\JJ	.	.
4F\	8F\L	8ff\	8aa\
.	16E\L	8ff\J	8aa\J
.	16D\JJ	.	.
=67	=67	=67	=67
4C/	4C/	8gg\L	8ee\L
.	.	16aa\L	16ff\L
.	.	16gg\JJ	16gg\JJ
4AA/	4AA/	2ff\	4aa\
2C/	2C/	.	2gg\
.	.	4ee\	.
=68	=68	=68	=68
0FF	0FF	0ff	0aa
==	==	==	==
*-	*-	*-	*-
!!!ENC: Craig Stuart Sapp
!!!END: 2004/12/14/
